X:1659
T:The Handy Man
M:2/4
L:1/16
B:O'Neill's 1659
K:Bb
F2 \
|B2Bc d2cB|Bdfg f2d-f|bfdf gfdB|cBcd cedc|
|B2Bc d2cB|Bdfg f2d-f|gbfd cBcd|B2d2B2 :|
|: B-A \
|G2A-GF G2A-GF|GFGA B2Bc|d2e-dc d2e-dc|dcBd f2B-d|
|fgfd f2df|gagf g2 bg|fdBd cedc|B2d2B2 :|
